X:2
T:The Man I Love
C:George & Ira Gershwin
L:1/8
M:C
I:linebreak $
K:Eb
"Eb" z B cB cB _d2 |"Ebm" z B cB _d4 | z"Gø" B cB cB _d2 |"Gb7" z A BA c4 |$
z"Fø" A BA BA =B2 |"E7" z G AG B2 A2 ||1"Gm" G8 "Gb7" x4|"Fm" z8 "E7" x4:|2$"Eb6" E8 "E" x4|
"Eb6" z8 "Db7" x4||"Cm6" EF G^F"Aø" G2 ef |"D7" e2 d2"Db7" B2 =B2 |$"Cm" d2 c2"Aø" G2"D7" =A2 |
"G7" =B8 "Db7" x4|"Cm6" EF G^F"Aø" G2 ef |"D7" e2 d2"G7" B2 =B2 |$"Gm" d2 c2"Gb7" B2 A2 |
"Fm" G2 FA"E7" G2 "_D.C. al 3rd end." F2 ||3"Eb6" E8 "Db7" x4|"Eb6" z8 |]

